X: 22790
T: Lanigan's Ball
R: jig
M: 6/8
K: Eminor
|:E2F G2A|B2^A B^cd|D2E F2G|AdB AFD|
E2F G2A|B2^A B^cd|edB cBA|GBF E2F:|
|:E2F GFE|FAG FE^D|E2F GFE|FDF E2D|
E2F GFE|FAG FED|E2B dBA|GBF E2F:|

